x-pack/solutions/observability/plugins/observability_onboarding/public/assets/nginx.svg

<svg width="16" height="16" viewBox="0 0 16 16" fill="none" xmlns="http://www.w3.org/2000/svg">
<path fill-rule="evenodd" clip-rule="evenodd" d="M8.00002 0L14.928 4V12L8.00002 16L1.07202 12V4L8.00002 0Z" fill="#119639"/>
<path d="M5.58468 6.75608V10.9439C5.58468 11.3877 5.22491 11.7474 4.78111 11.7474C4.33731 11.7474 3.97754 11.3877 3.97754 10.9439V4.81592C3.97754 4.1 4.84315 3.74148 5.34935 4.24775L10.1048 9.00371V4.81592C10.1048 4.37212 10.4645 4.01235 10.9083 4.01235C11.3521 4.01235 11.7119 4.37212 11.7119 4.81592V10.9439C11.7119 11.6598 10.8463 12.0183 10.3401 11.512L5.58468 6.75608Z" fill="white"/>
</svg>

<svg xmlns="http://www.w3.org/2000/svg" width="16" height="16" fill="none"><path fill="#119639" fill-rule="evenodd" d="m8 0 6.928 4v8L8 16l-6.928-4V4z" clip-rule="evenodd"/><path fill="#fff" d="M5.585 6.756v4.188a.804.804 0 0 1-1.607 0V4.816a.804.804 0 0 1 1.371-.568l4.756 4.756V4.816a.804.804 0 1 1 1.607 0v6.128a.804.804 0 0 1-1.372.568z"/></svg>
